X:1
T:Shoes and Stockings
M:C|
L:1/8
S:Portland
K:G
D2 \
| "G"G2G2 B2B2 | "C"cBc2 "G"d4 | "G"G2G2 BAGB | "D"ABAG FEDF |
| "G"G2G2 B2B2 | "C"cBc2 "G"d4 | "D7"dedc BGA2 | "G"G4 G2 :|
|: d2 \
| "G"g2g2 "D"a2a2 | "G"bab2 d4 | "C"c2c2 "G"B2B2 | "D"ABc2 d2g2- |
| "G"g2g2 "D"a2a2 | "G"bab2 d4 | "C"cBAc "G"BAGB | "D"AGF2 "G"G2 :|
